app/content/themes/irontheme/images/general/call.svg

<svg width="52" height="52" viewBox="0 0 52 52" fill="none" xmlns="http://www.w3.org/2000/svg">
<g clip-path="url(#clip0)">
<path d="M50.6355 40.1163L40.1105 33.0973C38.7748 32.2138 36.9845 32.5045 35.997 33.7654L32.9312 37.7073C32.5372 38.2268 31.821 38.3775 31.251 38.0609L30.6678 37.7394C28.7345 36.6856 26.3291 35.3737 21.4825 30.5255C16.636 25.6772 15.3214 23.2699 14.2677 21.3402L13.9479 20.757C13.6269 20.1871 13.7748 19.4678 14.2945 19.0707L18.2337 16.0058C19.4941 15.0182 19.7853 13.2284 18.9027 11.8923L11.8838 1.36733C10.9793 0.0067945 9.16462 -0.401629 7.76439 0.440097L3.36322 3.08388C1.98035 3.89687 0.965785 5.21354 0.532279 6.75797C-1.05257 12.5326 0.139696 22.4986 14.8206 37.1813C26.499 48.8587 35.193 51.9991 41.1686 51.9991C42.5439 52.005 43.9137 51.826 45.2414 51.4671C46.7861 51.0341 48.103 50.0194 48.9155 48.6361L51.5619 44.2376C52.4048 42.8371 51.9966 41.0213 50.6355 40.1163ZM50.0687 43.3485L47.4284 47.7496C46.845 48.748 45.8979 49.4821 44.7854 49.7981C39.4545 51.2617 30.141 50.0495 16.0467 35.9552C1.95242 21.8609 0.740248 12.5482 2.20385 7.21646C2.52027 6.10269 3.25527 5.15434 4.25491 4.57003L8.65607 1.9297C9.26363 1.56413 10.0512 1.74133 10.4437 2.33172L14.2565 8.05605L17.4567 12.8558C17.8399 13.4353 17.714 14.2121 17.1673 14.6409L13.2271 17.7058C12.0281 18.6227 11.6856 20.2817 12.4239 21.5983L12.7368 22.1668C13.8442 24.1979 15.2211 26.7247 20.2479 31.7507C25.2747 36.7766 27.8007 38.1536 29.8309 39.261L30.4002 39.5746C31.7168 40.3128 33.3759 39.9705 34.2927 38.7714L37.3576 34.8313C37.7866 34.2848 38.563 34.159 39.1427 34.5419L49.6668 41.5608C50.2576 41.953 50.4348 42.741 50.0687 43.3485Z" fill="url(#paint0_linear)"/>
<path d="M29.4651 8.671C37.5972 8.68003 44.1872 15.2702 44.1963 23.4022C44.1963 23.8808 44.5842 24.2687 45.0628 24.2687C45.5414 24.2687 45.9293 23.8808 45.9293 23.4022C45.9193 14.3134 38.5539 6.94794 29.4651 6.93799C28.9865 6.93799 28.5986 7.3259 28.5986 7.80449C28.5986 8.28309 28.9865 8.671 29.4651 8.671Z" fill="url(#paint1_linear)"/>
<path d="M29.4651 13.8702C34.7269 13.8764 38.9909 18.1404 38.9971 23.4022C38.9971 23.8808 39.3851 24.2687 39.8636 24.2687C40.3422 24.2687 40.7301 23.8808 40.7301 23.4022C40.7229 17.1836 35.6836 12.1443 29.4651 12.1372C28.9865 12.1372 28.5986 12.5251 28.5986 13.0037C28.5986 13.4823 28.9865 13.8702 29.4651 13.8702Z" fill="url(#paint2_linear)"/>
<path d="M29.4651 19.0694C31.8568 19.0723 33.7949 21.0104 33.7979 23.4022C33.7979 23.8808 34.1859 24.2687 34.6644 24.2687C35.1429 24.2687 35.5309 23.8808 35.5309 23.4022C35.527 20.0537 32.8136 17.3402 29.4651 17.3364C28.9865 17.3364 28.5986 17.7243 28.5986 18.2029C28.5986 18.6815 28.9865 19.0694 29.4651 19.0694Z" fill="url(#paint3_linear)"/>
</g>
<defs>
<linearGradient id="paint0_linear" x1="52" y1="26.0011" x2="2.21288e-07" y2="26.0011" gradientUnits="userSpaceOnUse">
<stop stop-color="#2063B1"/>
<stop offset="1" stop-color="#3CBAFC"/>
</linearGradient>
<linearGradient id="paint1_linear" x1="45.9293" y1="15.6033" x2="28.5986" y2="15.6033" gradientUnits="userSpaceOnUse">
<stop stop-color="#2063B1"/>
<stop offset="1" stop-color="#3CBAFC"/>
</linearGradient>
<linearGradient id="paint2_linear" x1="40.7301" y1="18.2029" x2="28.5986" y2="18.2029" gradientUnits="userSpaceOnUse">
<stop stop-color="#2063B1"/>
<stop offset="1" stop-color="#3CBAFC"/>
</linearGradient>
<linearGradient id="paint3_linear" x1="35.5309" y1="20.8025" x2="28.5986" y2="20.8025" gradientUnits="userSpaceOnUse">
<stop stop-color="#2063B1"/>
<stop offset="1" stop-color="#3CBAFC"/>
</linearGradient>
<clipPath id="clip0">
<rect width="52" height="52" fill="white"/>
</clipPath>
</defs>
</svg>

<svg width="52" height="52" viewBox="0 0 52 52" fill="none" xmlns="http://www.w3.org/2000/svg"><g clip-path="url(#clip0)"><path d="M50.636 40.116L40.11 33.097a3.072 3.072 0 00-4.113.668l-3.066 3.942a1.31 1.31 0 01-1.68.354l-.583-.322c-1.933-1.053-4.339-2.365-9.185-7.213-4.847-4.849-6.162-7.256-7.215-9.186l-.32-.583a1.312 1.312 0 01.346-1.686l3.94-3.065a3.074 3.074 0 00.669-4.114l-7.02-10.525A3.056 3.056 0 007.765.44l-4.4 2.644A6.208 6.208 0 00.531 6.758c-1.585 5.775-.392 15.74 14.289 30.423C26.499 48.86 35.193 52 41.169 52a15.355 15.355 0 004.072-.532 6.203 6.203 0 003.675-2.83l2.646-4.4a3.056 3.056 0 00-.926-4.12zm-.567 3.233l-2.64 4.4a4.478 4.478 0 01-2.644 2.05c-5.33 1.463-14.644.25-28.738-13.844C1.952 21.861.74 12.548 2.204 7.216a4.485 4.485 0 012.05-2.646l4.402-2.64a1.326 1.326 0 011.788.402l3.813 5.724 3.2 4.8c.383.58.257 1.356-.29 1.785l-3.94 3.065a3.033 3.033 0 00-.803 3.892l.313.569c1.107 2.03 2.484 4.558 7.51 9.584 5.028 5.026 7.554 6.403 9.584 7.51l.57.314a3.033 3.033 0 003.892-.804l3.065-3.94a1.334 1.334 0 011.785-.29l10.524 7.02c.59.392.768 1.18.402 1.788z" fill="url(#paint0_linear)"/><path d="M29.465 8.671c8.132.009 14.722 6.6 14.731 14.731a.866.866 0 101.733 0c-.01-9.089-7.375-16.454-16.464-16.464a.866.866 0 100 1.733z" fill="url(#paint1_linear)"/><path d="M29.465 13.87a9.543 9.543 0 019.532 9.532.867.867 0 001.733 0c-.007-6.218-5.046-11.258-11.265-11.265a.866.866 0 100 1.733z" fill="url(#paint2_linear)"/><path d="M29.465 19.07a4.338 4.338 0 014.333 4.332.867.867 0 001.733 0 6.073 6.073 0 00-6.066-6.066.866.866 0 100 1.733z" fill="url(#paint3_linear)"/></g><defs><linearGradient id="paint0_linear" x1="52" y1="26.001" x2="0" y2="26.001" gradientUnits="userSpaceOnUse"><stop stop-color="#2063B1"/><stop offset="1" stop-color="#3CBAFC"/></linearGradient><linearGradient id="paint1_linear" x1="45.929" y1="15.603" x2="28.599" y2="15.603" gradientUnits="userSpaceOnUse"><stop stop-color="#2063B1"/><stop offset="1" stop-color="#3CBAFC"/></linearGradient><linearGradient id="paint2_linear" x1="40.73" y1="18.203" x2="28.599" y2="18.203" gradientUnits="userSpaceOnUse"><stop stop-color="#2063B1"/><stop offset="1" stop-color="#3CBAFC"/></linearGradient><linearGradient id="paint3_linear" x1="35.531" y1="20.802" x2="28.599" y2="20.802" gradientUnits="userSpaceOnUse"><stop stop-color="#2063B1"/><stop offset="1" stop-color="#3CBAFC"/></linearGradient><clipPath id="clip0"><path fill="#fff" d="M0 0h52v52H0z"/></clipPath></defs></svg>
